X: 33639
T: Rambler, The
R: jig
M: 6/8
K: Gmajor
E|DB,D G,2G|EDB, D2d|edB GAB|cBc AGE|DB,D G,2G|EDB, D2d|edB GAB|AGF G2:|
B|dBA GBd|ged ege|~d3 edB|{c}BAG ABc|dBA GBd|ged ege|~d3 edB|AGF G2:|

